packages/core/src/svgs/tokens/branded/XCHF.svg

<svg width="24" height="24" viewBox="0 0 24 24" fill="none" xmlns="http://www.w3.org/2000/svg">
<path d="M8.38889 13.1889L7.83667 12.2866L4.92 17H6.68611L13.8539 5.33331L22 18.6666H11.7345L10.0234 15.8644L10.9928 14.28L12.6912 17H19.08L13.8539 8.50665L7.64278 18.6666H2L7.83667 9.11776L9.35778 11.6039L8.38889 13.1889Z" fill="#CE0E2D"/>
</svg>

<svg xmlns="http://www.w3.org/2000/svg" width="24" height="24" fill="none" viewBox="0 0 24 24">
    <path fill="#CE0E2D" d="m8.389 13.189-.552-.902L4.92 17h1.766l7.168-11.667L22 18.667H11.735l-1.712-2.803.97-1.584L12.69 17h6.389l-5.226-8.493-6.211 10.16H2l5.837-9.55 1.52 2.487z"/>
</svg>
